art/dp/systems/mess.svg

<svg enable-background="new 0 0 1897.3 456.5" height="1192" viewBox="0 0 3839.9999 1192" width="3840" xmlns="http://www.w3.org/2000/svg" xmlns:xlink="http://www.w3.org/1999/xlink"><linearGradient id="a" gradientUnits="userSpaceOnUse" x1="914.69531" x2="914.69531" y1="54.286598" y2="211.8199"><stop offset="0" stop-color="#fff"/><stop offset=".7908" stop-color="#ffa102"/></linearGradient><switch transform="matrix(2.6393548 0 0 2.63896636615 -574.46613 -8.24940875581)"><foreignObject height="1" requiredExtensions="http://ns.adobe.com/AdobeIllustrator/10.0/" width="1"/><g><path d="m521.207 296.791-119.258 115.497-1.333 1.289h-156.62l353.309-376.025v170.096l143.612-160.204v247.694h6.193l103.563-230.008h246.362l-37.186 82.886h-144.704l-22.517 51.715h78.993l-37.025 85.89-65.831-.002-22.399 49.998h300.364l22.399-49.996h-139.158l96.45-220.491h248.204l-36.022 82.886h-149.392l-22.52 51.715h138.53l-59.478 135.886h176.389l22.396-49.996h-139.156l96.449-220.491h244.391l-36.022 82.886h-143.482l-22.515 51.715h136.643l-93.956 213.846h-847.81v-116.2l-117.863 123.015zm-122.444 112.21v-4.578z" fill="#ffe5c0"/><path d="m512.875 329.448-95.974 92.947-5.324 5.157h-193.923l398.784-424.426v168.875l143.611-160.204v233.401l87.147-193.555h275.646 275.399 274.314l-47.957 110.348h-143.491l-10.557 24.252h136.717l-106.02 241.31h-870.508v-95.75l-117.864 123.015zm-108.711 79.795v-18.309zm788.885-223h138.575l-59.48 135.889h146.493l10.095-22.537h-138.954l60.194-137.604h-146.364zm-320.085 135.887h270.271l10.096-22.535h-138.957l76.997-176.014-17.232 38.41h-144.596l-10.559 24.252h78.912l-48.869 113.352h-65.967z" fill="#f7f7f7"/><path d="m520.474 313.116-107.617 104.226-3.331 3.224h-175.269l376.047-400.224-.003 169.483 143.615-160.203v247.425l98.451-218.663h261.409l-43.348 96.62-144.651-.002-16.537 37.984h78.951l-42.946 99.622-65.9-.002-16.249 36.269h285.321l16.249-36.267h-139.054l102.454-234.225h263.165l-41.99 96.62-149.4-.002-16.536 37.984h138.555l-59.482 135.889h161.441l16.249-36.267h-139.058l102.456-234.225h259.351l-41.988 96.62h-143.49l-16.535 37.986h136.683l-99.988 227.576h-859.16v-105.975l-117.865 123.015zm-115.578 96.006v-11.445z" fill="#a05f00"/><path d="m528.753 292.56-121.495 117.378-1.002.967h-153.888l350.374-371.99v170.198l143.967-160.208v245.85h8.1l103.817-230.009h244.453l-36.25 80.598h-145.07l-23.566 54.003h79.192l-36.129 83.599h-65.98l-23.482 52.29h303.617l23.482-52.287h-139.519l95.683-218.203h246.315l-35.112 80.598h-149.76l-23.569 54.003h138.864l-59.624 135.889h179.315l23.482-52.287h-139.516l95.682-218.203h242.493l-35.115 80.598h-143.832l-23.571 54.003h136.972l-93.18 211.558h-847.993v-117.904l-118.155 123.015zm-123.888 114.912v-3.435z" fill="#f7f7f7"/><path d="m407.177 404.674 125.959-120.893v118.772l118.927-121.954v126.197h838.122l89.933-202.569h-136.618l26.503-60.871h143.481l32.042-73.731h-232.296l-90.32 209.215h139.223l-28.623 61.276h-188.474l59.48-135.889h-138.514l26.501-60.871h149.395l32.041-73.731h-236.11l-90.322 209.215h137.106l-28.624 61.276h-310.398l27.562-61.276h65.783l32.02-74.613h-79.02l26.501-60.871h144.742l33.08-73.731h-234.213l-103.562 230.011h-15.853v-240.31l-143.612 160.207v-170.506l-336.026 355.647z" fill="#ffa102"/><path d="m852.921 87.534c66.592-5.182 146.623 8.831 212.502 53.187l31.897-71.096h-236.335zm559.247-17.909-17.37 39.711c69.873-7.504 164.834-8.357 222.567 27.529l29.221-67.24zm-307.723 73.894c107.86.172 145.137-5.329 208.041-20.736 8.031-1.967 23.235-5.135 42.997-8.247l19.517-44.911h-238.232zm-504.366-43.234v-51.258l-51.871 55.206c16.723-3.139 33.296-5.365 51.871-3.948zm120.433 50.79c3.55-10.763 11.608-20.671 23.18-29.33v-62.419l-61.2 68.271c11.723 6.407 24.336 14.156 38.02 23.478z" fill="url(#a)"/></g></switch></svg>

<?xml version="1.0" encoding="UTF-8" standalone="no"?>
<svg
   enable-background="new 0 0 1897.3 456.5"
   height="1192"
   viewBox="0 0 3839.9999 1192"
   width="3840"
   version="1.1"
   id="svg7"
   sodipodi:docname="mess.svg"
   inkscape:version="1.3.2 (091e20e, 2023-11-25)"
   xmlns:inkscape="http://www.inkscape.org/namespaces/inkscape"
   xmlns:sodipodi="http://sodipodi.sourceforge.net/DTD/sodipodi-0.dtd"
   xmlns="http://www.w3.org/2000/svg"
   xmlns:svg="http://www.w3.org/2000/svg">
  <defs
     id="defs7" />
  <sodipodi:namedview
     id="namedview7"
     pagecolor="#ffffff"
     bordercolor="#000000"
     borderopacity="0.25"
     inkscape:showpageshadow="2"
     inkscape:pageopacity="0.0"
     inkscape:pagecheckerboard="0"
     inkscape:deskcolor="#d1d1d1"
     inkscape:zoom="0.19795745"
     inkscape:cx="1919.6045"
     inkscape:cy="596.08771"
     inkscape:window-width="1312"
     inkscape:window-height="449"
     inkscape:window-x="0"
     inkscape:window-y="23"
     inkscape:window-maximized="0"
     inkscape:current-layer="svg7" />
  <linearGradient
     id="a"
     gradientUnits="userSpaceOnUse"
     x1="914.69531"
     x2="914.69531"
     y1="54.286598"
     y2="211.8199">
    <stop
       offset="0"
       stop-color="#fff"
       id="stop1" />
    <stop
       offset=".7908"
       stop-color="#ffa102"
       id="stop2" />
  </linearGradient>
  <g
     id="g8"
     transform="scale(1,0.99985283)">
    <switch
       transform="matrix(2.6393548,0,0,2.6393548,-574.46613,-8.250623)"
       id="switch7">
      <foreignObject
         height="1"
         requiredExtensions="http://ns.adobe.com/AdobeIllustrator/10.0/"
         width="1" />
      <g
         id="g7">
        <path
           d="m 521.207,296.791 -119.258,115.497 -1.333,1.289 H 243.996 L 597.305,37.552 V 207.648 L 740.917,47.444 v 247.694 h 6.193 L 850.673,65.13 h 246.362 l -37.186,82.886 H 915.145 l -22.517,51.715 h 78.993 l -37.025,85.89 -65.831,-0.002 -22.399,49.998 h 300.364 l 22.399,-49.996 h -139.158 l 96.45,-220.491 h 248.204 l -36.022,82.886 h -149.392 l -22.52,51.715 h 138.53 l -59.478,135.886 h 176.389 l 22.396,-49.996 H 1305.372 L 1401.821,65.13 h 244.391 l -36.022,82.886 h -143.482 l -22.515,51.715 h 136.643 L 1486.88,413.577 H 639.07 v -116.2 L 521.207,420.392 Z m -122.444,112.21 v -4.578 z"
           fill="#ffe5c0"
           id="path2" />
        <path
           d="m 512.875,329.448 -95.974,92.947 -5.324,5.157 H 217.654 L 616.438,3.126 V 172.001 L 760.049,11.797 V 245.198 L 847.196,51.643 h 275.646 275.399 274.314 l -47.957,110.348 h -143.491 l -10.557,24.252 h 136.717 l -106.02,241.31 H 630.739 v -95.75 L 512.875,454.818 Z m -108.711,79.795 v -18.309 z m 788.885,-223 h 138.575 l -59.48,135.889 h 146.493 l 10.095,-22.537 h -138.954 l 60.194,-137.604 H 1203.608 Z M 872.964,322.13 h 270.271 l 10.096,-22.535 h -138.957 l 76.997,-176.014 -17.232,38.41 H 929.543 l -10.559,24.252 h 78.912 L 949.027,299.595 H 883.06 Z"
           fill="#f7f7f7"
           id="path3" />
        <path
           d="m 520.474,313.116 -107.617,104.226 -3.331,3.224 H 234.257 L 610.304,20.342 610.301,189.825 753.916,29.622 V 277.047 L 852.367,58.384 h 261.409 l -43.348,96.62 -144.651,-0.002 -16.537,37.984 h 78.951 l -42.946,99.622 -65.9,-0.002 -16.249,36.269 h 285.321 l 16.249,-36.267 H 1025.612 L 1128.066,58.383 h 263.165 l -41.99,96.62 -149.4,-0.002 -16.536,37.984 h 138.555 l -59.482,135.889 h 161.441 l 16.249,-36.267 H 1301.01 L 1403.466,58.382 h 259.351 l -41.988,96.62 h -143.49 l -16.535,37.986 h 136.683 l -99.988,227.576 H 638.339 V 314.589 L 520.474,437.604 Z m -115.578,96.006 v -11.445 z"
           fill="#a05f00"
           id="path4" />
        <path
           d="m 528.753,292.56 -121.495,117.378 -1.002,0.967 H 252.368 L 602.742,38.915 V 209.113 L 746.709,48.905 v 245.85 h 8.1 L 858.626,64.746 h 244.453 l -36.25,80.598 h -145.07 l -23.566,54.003 h 79.192 l -36.129,83.599 h -65.98 l -23.482,52.29 h 303.617 l 23.482,-52.287 h -139.519 l 95.683,-218.203 h 246.315 l -35.112,80.598 H 1196.5 l -23.569,54.003 h 138.864 l -59.624,135.889 h 179.315 l 23.482,-52.287 h -139.516 l 95.682,-218.203 h 242.493 l -35.115,80.598 H 1474.68 l -23.571,54.003 h 136.972 l -93.18,211.558 H 646.908 V 293.001 L 528.753,416.016 Z M 404.865,407.472 v -3.435 z"
           fill="#f7f7f7"
           id="path5" />
        <path
           d="M 407.177,404.674 533.136,283.781 V 402.553 L 652.063,280.599 v 126.197 h 838.122 l 89.933,-202.569 H 1443.5 l 26.503,-60.871 h 143.481 l 32.042,-73.731 H 1413.23 l -90.32,209.215 h 139.223 l -28.623,61.276 h -188.474 l 59.48,-135.889 h -138.514 l 26.501,-60.871 h 149.395 l 32.041,-73.731 h -236.11 l -90.322,209.215 h 137.106 l -28.624,61.276 H 845.591 l 27.562,-61.276 h 65.783 l 32.02,-74.613 h -79.02 l 26.501,-60.871 h 144.742 l 33.08,-73.731 H 862.046 L 758.484,299.636 H 742.631 V 59.326 L 599.019,219.533 V 49.027 L 262.993,404.674 Z"
           fill="#ffa102"
           id="path6" />
        <path
           d="m 852.921,87.534 c 66.592,-5.182 146.623,8.831 212.502,53.187 L 1097.32,69.625 H 860.985 Z m 559.247,-17.909 -17.37,39.711 c 69.873,-7.504 164.834,-8.357 222.567,27.529 l 29.221,-67.24 z m -307.723,73.894 c 107.86,0.172 145.137,-5.329 208.041,-20.736 8.031,-1.967 23.235,-5.135 42.997,-8.247 L 1375,69.625 H 1136.768 Z M 600.079,100.285 V 49.027 l -51.871,55.206 c 16.723,-3.139 33.296,-5.365 51.871,-3.948 z m 120.433,50.79 c 3.55,-10.763 11.608,-20.671 23.18,-29.33 V 59.326 l -61.2,68.271 c 11.723,6.407 24.336,14.156 38.02,23.478 z"
           fill="url(#a)"
           id="path7"
           style="fill:url(#a)" />
      </g>
    </switch>
  </g>
</svg>
